icons/svg/shopping/shoes.svg

<?xml version="1.0" encoding="UTF-8" standalone="no"?>
<!-- Created with Inkscape (http://www.inkscape.org/) -->

<svg
   xmlns:dc="http://purl.org/dc/elements/1.1/"
   xmlns:cc="http://creativecommons.org/ns#"
   xmlns:rdf="http://www.w3.org/1999/02/22-rdf-syntax-ns#"
   xmlns:svg="http://www.w3.org/2000/svg"
   xmlns="http://www.w3.org/2000/svg"
   xmlns:sodipodi="http://sodipodi.sourceforge.net/DTD/sodipodi-0.dtd"
   xmlns:inkscape="http://www.inkscape.org/namespaces/inkscape"
   version="1.0"
   width="580"
   height="580"
   id="svg2"
   sodipodi:version="0.32"
   inkscape:version="0.48.4 r9939"
   sodipodi:docname="shoes.svg"
   inkscape:output_extension="org.inkscape.output.svg.inkscape">
  <metadata
     id="metadata2975">
    <rdf:RDF>
      <cc:Work
         rdf:about="">
        <dc:format>image/svg+xml</dc:format>
        <dc:type
           rdf:resource="http://purl.org/dc/dcmitype/StillImage" />
        <dc:title />
      </cc:Work>
    </rdf:RDF>
  </metadata>
  <sodipodi:namedview
     inkscape:window-height="1004"
     inkscape:window-width="1920"
     inkscape:pageshadow="2"
     inkscape:pageopacity="0.0"
     guidetolerance="10.0"
     gridtolerance="10.0"
     objecttolerance="10.0"
     borderopacity="1.0"
     bordercolor="#666666"
     pagecolor="#ffffff"
     id="base"
     inkscape:zoom="0.45254832"
     inkscape:cx="663.57403"
     inkscape:cy="222.74447"
     inkscape:window-x="1680"
     inkscape:window-y="0"
     inkscape:current-layer="svg2"
     showgrid="false"
     inkscape:window-maximized="1" />
  <defs
     id="defs4">
    <inkscape:perspective
       sodipodi:type="inkscape:persp3d"
       inkscape:vp_x="17.187501 : 317.73438 : 1"
       inkscape:vp_y="0 : 1000 : 0"
       inkscape:vp_z="597.1875 : 317.73438 : 1"
       inkscape:persp3d-origin="307.1875 : 221.06771 : 1"
       id="perspective2441" />
    <inkscape:perspective
       id="perspective2466"
       inkscape:persp3d-origin="372.04724 : 350.78739 : 1"
       inkscape:vp_z="744.09448 : 526.18109 : 1"
       inkscape:vp_y="0 : 1000 : 0"
       inkscape:vp_x="0 : 526.18109 : 1"
       sodipodi:type="inkscape:persp3d" />
    <inkscape:perspective
       id="perspective3333"
       inkscape:persp3d-origin="372.04724 : 350.78739 : 1"
       inkscape:vp_z="744.09448 : 526.18109 : 1"
       inkscape:vp_y="0 : 1000 : 0"
       inkscape:vp_x="0 : 526.18109 : 1"
       sodipodi:type="inkscape:persp3d" />
    <inkscape:perspective
       id="perspective3401"
       inkscape:persp3d-origin="372.04724 : 350.78739 : 1"
       inkscape:vp_z="744.09448 : 526.18109 : 1"
       inkscape:vp_y="0 : 1000 : 0"
       inkscape:vp_x="0 : 526.18109 : 1"
       sodipodi:type="inkscape:persp3d" />
    <inkscape:perspective
       id="perspective3464"
       inkscape:persp3d-origin="372.04724 : 350.78739 : 1"
       inkscape:vp_z="744.09448 : 526.18109 : 1"
       inkscape:vp_y="0 : 1000 : 0"
       inkscape:vp_x="0 : 526.18109 : 1"
       sodipodi:type="inkscape:persp3d" />
    <inkscape:perspective
       id="perspective3581"
       inkscape:persp3d-origin="225 : 150 : 1"
       inkscape:vp_z="450 : 225 : 1"
       inkscape:vp_y="0 : 1000 : 0"
       inkscape:vp_x="0 : 225 : 1"
       sodipodi:type="inkscape:persp3d" />
    <inkscape:perspective
       id="perspective4312"
       inkscape:persp3d-origin="225 : 150 : 1"
       inkscape:vp_z="450 : 225 : 1"
       inkscape:vp_y="0 : 1000 : 0"
       inkscape:vp_x="0 : 225 : 1"
       sodipodi:type="inkscape:persp3d" />
    <inkscape:perspective
       id="perspective8860"
       inkscape:persp3d-origin="372.04724 : 350.78739 : 1"
       inkscape:vp_z="744.09448 : 526.18109 : 1"
       inkscape:vp_y="0 : 1000 : 0"
       inkscape:vp_x="0 : 526.18109 : 1"
       sodipodi:type="inkscape:persp3d" />
    <inkscape:perspective
       id="perspective8887"
       inkscape:persp3d-origin="372.04724 : 350.78739 : 1"
       inkscape:vp_z="744.09448 : 526.18109 : 1"
       inkscape:vp_y="0 : 1000 : 0"
       inkscape:vp_x="0 : 526.18109 : 1"
       sodipodi:type="inkscape:persp3d" />
    <inkscape:perspective
       sodipodi:type="inkscape:persp3d"
       inkscape:vp_x="0 : 16 : 1"
       inkscape:vp_y="0 : 1000 : 0"
       inkscape:vp_z="32 : 16 : 1"
       inkscape:persp3d-origin="16 : 10.666667 : 1"
       id="perspective4904" />
    <inkscape:perspective
       sodipodi:type="inkscape:persp3d"
       inkscape:vp_x="0 : 6 : 1"
       inkscape:vp_y="0 : 1000 : 0"
       inkscape:vp_z="12 : 6 : 1"
       inkscape:persp3d-origin="6 : 4 : 1"
       id="perspective4668" />
    <inkscape:perspective
       sodipodi:type="inkscape:persp3d"
       inkscape:vp_x="0 : 526.18109 : 1"
       inkscape:vp_y="0 : 1000 : 0"
       inkscape:vp_z="744.09448 : 526.18109 : 1"
       inkscape:persp3d-origin="372.04724 : 350.78739 : 1"
       id="perspective4471" />
    <symbol
       id="symbol-university"
       viewBox="244.5 110 489 219.9">
      <path
         d="M79,43l57,119c0,0,21-96,104-96s124,106,124,106l43-133l82-17L0,17L79,43z"
         id="path4460" />
      <path
         fill="none"
         stroke="#000000"
         stroke-width="20"
         d="M94,176l-21,39"
         id="path4462" />
      <path
         d="M300,19c0,10.5-22.6,19-50.5,19S199,29.5,199,19s22.6-19,50.5-19S300,8.5,300,19z"
         id="path4464" />
      <path
         ill="none"
         stroke="#000000"
         stroke-width="20"
         d="M112,216l-16-38L64,88c0,0-9-8-4-35s16-24,16-24"
         id="path4466" />
    </symbol>
    <inkscape:perspective
       sodipodi:type="inkscape:persp3d"
       inkscape:vp_x="0 : 30 : 1"
       inkscape:vp_y="0 : 1000 : 0"
       inkscape:vp_z="60 : 30 : 1"
       inkscape:persp3d-origin="30 : 20 : 1"
       id="perspective3452" />
    <inkscape:perspective
       id="perspective9479"
       inkscape:persp3d-origin="290 : 193.33333 : 1"
       inkscape:vp_z="580 : 290 : 1"
       inkscape:vp_y="0 : 1000 : 0"
       inkscape:vp_x="0 : 290 : 1"
       sodipodi:type="inkscape:persp3d" />
    <inkscape:perspective
       id="perspective9690"
       inkscape:persp3d-origin="372.04724 : 350.78739 : 1"
       inkscape:vp_z="744.09448 : 526.18109 : 1"
       inkscape:vp_y="0 : 1000 : 0"
       inkscape:vp_x="0 : 526.18109 : 1"
       sodipodi:type="inkscape:persp3d" />
    <inkscape:perspective
       sodipodi:type="inkscape:persp3d"
       inkscape:vp_x="0 : 290 : 1"
       inkscape:vp_y="0 : 1000 : 0"
       inkscape:vp_z="580 : 290 : 1"
       inkscape:persp3d-origin="290 : 193.33333 : 1"
       id="perspective9819" />
    <inkscape:perspective
       id="perspective9817"
       inkscape:persp3d-origin="30 : 20 : 1"
       inkscape:vp_z="60 : 30 : 1"
       inkscape:vp_y="0 : 1000 : 0"
       inkscape:vp_x="0 : 30 : 1"
       sodipodi:type="inkscape:persp3d" />
    <symbol
       viewBox="244.5 110 489 219.9"
       id="symbol9807">
      <path
         id="path9809"
         d="M79,43l57,119c0,0,21-96,104-96s124,106,124,106l43-133l82-17L0,17L79,43z" />
      <path
         id="path9811"
         d="M94,176l-21,39"
         stroke-width="20"
         stroke="#000000"
         fill="none" />
      <path
         id="path9813"
         d="M300,19c0,10.5-22.6,19-50.5,19S199,29.5,199,19s22.6-19,50.5-19S300,8.5,300,19z" />
      <path
         id="path9815"
         d="M112,216l-16-38L64,88c0,0-9-8-4-35s16-24,16-24"
         stroke-width="20"
         stroke="#000000"
         ill="none" />
    </symbol>
    <inkscape:perspective
       id="perspective9805"
       inkscape:persp3d-origin="372.04724 : 350.78739 : 1"
       inkscape:vp_z="744.09448 : 526.18109 : 1"
       inkscape:vp_y="0 : 1000 : 0"
       inkscape:vp_x="0 : 526.18109 : 1"
       sodipodi:type="inkscape:persp3d" />
    <inkscape:perspective
       id="perspective9803"
       inkscape:persp3d-origin="6 : 4 : 1"
       inkscape:vp_z="12 : 6 : 1"
       inkscape:vp_y="0 : 1000 : 0"
       inkscape:vp_x="0 : 6 : 1"
       sodipodi:type="inkscape:persp3d" />
    <inkscape:perspective
       id="perspective9801"
       inkscape:persp3d-origin="16 : 10.666667 : 1"
       inkscape:vp_z="32 : 16 : 1"
       inkscape:vp_y="0 : 1000 : 0"
       inkscape:vp_x="0 : 16 : 1"
       sodipodi:type="inkscape:persp3d" />
    <inkscape:perspective
       sodipodi:type="inkscape:persp3d"
       inkscape:vp_x="0 : 526.18109 : 1"
       inkscape:vp_y="0 : 1000 : 0"
       inkscape:vp_z="744.09448 : 526.18109 : 1"
       inkscape:persp3d-origin="372.04724 : 350.78739 : 1"
       id="perspective9799" />
    <inkscape:perspective
       sodipodi:type="inkscape:persp3d"
       inkscape:vp_x="0 : 526.18109 : 1"
       inkscape:vp_y="0 : 1000 : 0"
       inkscape:vp_z="744.09448 : 526.18109 : 1"
       inkscape:persp3d-origin="372.04724 : 350.78739 : 1"
       id="perspective9797" />
    <inkscape:perspective
       sodipodi:type="inkscape:persp3d"
       inkscape:vp_x="0 : 225 : 1"
       inkscape:vp_y="0 : 1000 : 0"
       inkscape:vp_z="450 : 225 : 1"
       inkscape:persp3d-origin="225 : 150 : 1"
       id="perspective9795" />
    <inkscape:perspective
       sodipodi:type="inkscape:persp3d"
       inkscape:vp_x="0 : 225 : 1"
       inkscape:vp_y="0 : 1000 : 0"
       inkscape:vp_z="450 : 225 : 1"
       inkscape:persp3d-origin="225 : 150 : 1"
       id="perspective9793" />
    <inkscape:perspective
       sodipodi:type="inkscape:persp3d"
       inkscape:vp_x="0 : 526.18109 : 1"
       inkscape:vp_y="0 : 1000 : 0"
       inkscape:vp_z="744.09448 : 526.18109 : 1"
       inkscape:persp3d-origin="372.04724 : 350.78739 : 1"
       id="perspective9791" />
    <inkscape:perspective
       sodipodi:type="inkscape:persp3d"
       inkscape:vp_x="0 : 526.18109 : 1"
       inkscape:vp_y="0 : 1000 : 0"
       inkscape:vp_z="744.09448 : 526.18109 : 1"
       inkscape:persp3d-origin="372.04724 : 350.78739 : 1"
       id="perspective9789" />
    <inkscape:perspective
       sodipodi:type="inkscape:persp3d"
       inkscape:vp_x="0 : 526.18109 : 1"
       inkscape:vp_y="0 : 1000 : 0"
       inkscape:vp_z="744.09448 : 526.18109 : 1"
       inkscape:persp3d-origin="372.04724 : 350.78739 : 1"
       id="perspective9787" />
    <inkscape:perspective
       sodipodi:type="inkscape:persp3d"
       inkscape:vp_x="0 : 526.18109 : 1"
       inkscape:vp_y="0 : 1000 : 0"
       inkscape:vp_z="744.09448 : 526.18109 : 1"
       inkscape:persp3d-origin="372.04724 : 350.78739 : 1"
       id="perspective9785" />
    <inkscape:perspective
       id="perspective9783"
       inkscape:persp3d-origin="290 : 193.33333 : 1"
       inkscape:vp_z="580 : 290 : 1"
       inkscape:vp_y="0 : 1000 : 0"
       inkscape:vp_x="0 : 290 : 1"
       sodipodi:type="inkscape:persp3d" />
    <defs
       id="defs48974" />
    <sodipodi:namedview
       pagecolor="#ffffff"
       inkscape:zoom="0.61399264"
       inkscape:window-y="26"
       inkscape:window-x="0"
       inkscape:window-width="1012"
       inkscape:window-height="739"
       inkscape:pageshadow="2"
       inkscape:pageopacity="0.0"
       inkscape:cy="250.37448"
       inkscape:cx="475.26707"
       id="namedview4258"
       borderopacity="1.0"
       bordercolor="#666666" />
    <inkscape:perspective
       id="perspective11483"
       inkscape:persp3d-origin="100 : 66.666667 : 1"
       inkscape:vp_z="200 : 100 : 1"
       inkscape:vp_y="0 : 1000 : 0"
       inkscape:vp_x="0 : 100 : 1"
       sodipodi:type="inkscape:persp3d" />
    <inkscape:perspective
       id="perspective12684"
       inkscape:persp3d-origin="180 : 66.666667 : 1"
       inkscape:vp_z="360 : 100 : 1"
       inkscape:vp_y="0 : 1000 : 0"
       inkscape:vp_x="0 : 100 : 1"
       sodipodi:type="inkscape:persp3d" />
  </defs>
  <g
     id="g1327">
    <path
       d="M 66.275,1.768 C 24.94,1.768 1.704,23.139 1.704,66.804 L 1.704,516.927 C 1.704,557.771 22.599,579.156 63.896,579.156 L 515.92,579.156 C 557.227,579.156 578.149,558.841 578.149,516.927 L 578.149,66.804 C 578.149,24.203 557.227,1.768 514.628,1.768 C 514.624,1.768 66.133,1.625 66.275,1.768 z "
       style="fill:#111;stroke:#eee;stroke-width:3.40799999"
       id="path1329" />
  </g>
  <path
     inkscape:connector-curvature="0"
     d="m 200.38939,406.12304 c 80.11131,0 99.99221,-9.92053 130.07255,-24.94079 5.50809,-2.74905 11.38471,-5.68736 18.11792,-8.77509 11.95246,-5.48817 28.53648,-15.69754 68.60707,-16.32504 l 14.28321,-0.2291 77.63114,0.46814 c 0.0199,0 0.0399,0 0.0598,0 4.52204,0 8.47633,-3.04788 9.63164,-7.41051 0.34868,-1.33469 8.64569,-23.12799 9.95045,-61.62484 0.86655,-25.24956 0.25898,-53.91553 -10.7473,-75.01159 -1.72306,-3.29689 -5.11956,-5.35869 -8.83479,-5.35869 -10.34883,0 -22.37101,5.28896 -37.60043,11.97237 -19.10395,8.3966 -40.75787,17.90877 -62.00333,17.90877 -32.48077,0 -48.96519,-28.33729 -58.53711,-49.64253 -1.63351,-3.63555 -2.38054,-5.29892 -3.86464,-6.90253 -3.90445,-4.2232 -8.20735,-6.37465 -12.81899,-6.37465 -5.60769,0 -9.7811,3.22717 -12.17158,6.64358 -9.38269,8.27706 -44.74896,64.74499 -83.46493,84.08803 -10.56796,5.28898 -64.63641,23.89775 -81.33,27.8819 -83.476697,11.77993 -106.62921,61.52439 -106.62921,61.52439 0,0 -1.03034,12.63075 0.242937,22.22705 2.912359,21.94956 12.2413,29.88113 149.405643,29.88113 z"
     id="path3"
     style="color:#000000;fill:#ffffff;fill-opacity:1;fill-rule:nonzero;stroke:none;stroke-width:15;marker:none;visibility:visible;display:inline;overflow:visible;enable-background:accumulate"
     sodipodi:nodetypes="ccccccscccscsccsccccscc" />
  <path
     inkscape:connector-curvature="0"
     d="m 417.50565,376.01281 13.84491,-0.22909 77.81047,0.45819 c 3.47616,0 6.82288,-0.6275 9.9604,-1.74307 v 21.66382 c 0,5.50809 -4.46229,9.96038 -9.9604,9.96038 H 399.5969 c -5.49812,0 -9.96037,-4.45229 -9.96037,-9.96038 v -17.54022 c 7.47028,-1.4343 16.48442,-2.44029 27.86912,-2.60963 z"
     id="path5"
     style="color:#000000;fill:#ffffff;fill-opacity:1;fill-rule:nonzero;stroke:none;stroke-width:15;marker:none;visibility:visible;display:inline;overflow:visible;enable-background:accumulate" />
</svg>

<svg width="580" height="580" viewBox="0 0 580 580" fill="none" xmlns="http://www.w3.org/2000/svg">
<g clip-path="url(#clip0)">
<path d="M66.2751 1.76863C24.9401 1.76863 1.7041 23.1396 1.7041 66.8046V516.928C1.7041 557.772 22.5991 579.157 63.8961 579.157H515.92C557.227 579.157 578.149 558.842 578.149 516.928V66.8046C578.149 24.2036 557.227 1.76863 514.628 1.76863C514.624 1.76863 66.1331 1.62563 66.2751 1.76863Z" fill="#111111" stroke="#EEEEEE" stroke-width="3.408"/>
<path d="M200.389 406.123C280.501 406.123 300.382 396.203 330.462 381.182C335.97 378.433 341.847 375.495 348.58 372.407C360.532 366.919 377.116 356.71 417.187 356.082L431.47 355.853L509.101 356.321C509.121 356.321 509.141 356.321 509.161 356.321C513.683 356.321 517.637 353.273 518.793 348.911C519.141 347.576 527.438 325.783 528.743 287.286C529.61 262.036 529.002 233.37 517.996 212.274C516.273 208.977 512.876 206.916 509.161 206.916C498.812 206.916 486.79 212.204 471.561 218.888C452.457 227.284 430.803 236.797 409.557 236.797C377.076 236.797 360.592 208.459 351.02 187.154C349.387 183.519 348.64 181.855 347.156 180.252C343.251 176.028 338.948 173.877 334.337 173.877C328.729 173.877 324.555 177.104 322.165 180.521C312.782 188.798 277.416 245.266 238.7 264.609C228.132 269.898 174.064 288.506 157.37 292.49C73.8933 304.27 50.7408 354.015 50.7408 354.015C50.7408 354.015 49.7105 366.646 50.9837 376.242C53.8961 398.191 63.225 406.123 200.389 406.123H200.389Z" fill="white"/>
<path d="M417.506 376.012L431.351 375.783L509.161 376.241C512.637 376.241 515.984 375.614 519.122 374.498V396.162C519.122 401.67 514.659 406.122 509.161 406.122H399.597C394.099 406.122 389.637 401.67 389.637 396.162V378.622C397.107 377.187 406.121 376.181 417.506 376.012V376.012Z" fill="white"/>
</g>
<defs>
<clipPath id="clip0">
<path d="M0 0H580V580H0V0Z" fill="white"/>
</clipPath>
</defs>
</svg>
